tenants/businesswise/icons/edit.svg

<svg fill="none" height="24" viewBox="0 0 24 24" width="24" xmlns="http://www.w3.org/2000/svg"><path d="m2 17.8339v4.1661h4.1661l12.2872-12.28722-4.1661-4.1661zm19.6751-11.3429c.103-.10278.1847-.22487.2405-.35926.0557-.1344.0844-.27847.0844-.42397s-.0287-.28957-.0844-.42397c-.0558-.1344-.1375-.25648-.2405-.35926l-2.5996-2.59965c-.1028-.10299-.2249-.18469-.3593-.24044s-.2785-.08445-.424-.08445-.2895.0287-.4239.08445-.2565.13745-.3593.24044l-2.0331 2.03306 4.1661 4.1661z" fill="#000"/></svg>

<svg width="24" height="24" viewBox="0 0 24 24" fill="none" xmlns="http://www.w3.org/2000/svg">
<path d="M2 17.8339V22H6.1661L18.4533 9.71278L14.2872 5.54668L2 17.8339ZM21.6751 6.491C21.7781 6.38822 21.8598 6.26613 21.9156 6.13174C21.9713 5.99734 22 5.85327 22 5.70777C22 5.56227 21.9713 5.4182 21.9156 5.2838C21.8598 5.1494 21.7781 5.02732 21.6751 4.92454L19.0755 2.32489C18.9727 2.2219 18.8506 2.1402 18.7162 2.08445C18.5818 2.0287 18.4377 2 18.2922 2C18.1467 2 18.0027 2.0287 17.8683 2.08445C17.7339 2.1402 17.6118 2.2219 17.509 2.32489L15.4759 4.35795L19.642 8.52405L21.6751 6.491Z" fill="black"/>
</svg>
